X: 34081
T: Reel De Port-Joli
R: reel
M: 4/4
K: Dmajor
d2e2|:fdec dAFA|GABG E2ed|c2B2 Acec|defd A2de|
fdec dAFA|GABG E2ed|c2B2 Aceg|1 fdec d2e2:|2 fdec d2AG||
|:FAdA FAdA|GBAG B2AG|FAdA FAdf|e2ce Aece|
FADA FADA|GBAG B2AG|FAdf gece|dfec d4:|

